!! 00000] TT[WS
!!!OTL: Yiyangyang de gege liangyangyang kandai
!!!ARE: Asia, China,ÿShanxi Ningwu
!! Ethnic Group: Han
!! WI, 135 (2)
!!!SCT: J0163
!!!YEM: Copyright 1995, estate of Helmut Schaffrath.
**kern
*ICvox
*Ivox
*M2/4
*k[b-e-]
*B-:
{8.ccc
16ddd
4ccc
=1
8ccc
8bb-
4gg
=2
8ccc
8ccc
8dd
8ff
=3
2gg}
=4
{8ccc
8ccc
8ccc
8bb-
=5
8gg
8gg
8gg
8ff
=6
8dd
8dd
8dd
16cc
16dd
=7
2cc}
==
!!!AGN: Xiaodiao. Qingge
!!!ONB: ESAC (Essen Associative Code) Database: CHINA
!!!AMT: simple duple
!!!AIN: vox
!!!EED: Helmut Schaffrath
!!!EEV: 1.0
*-
